X:1
T:Title
%%score { ( 1 3 ) | ( 2 4 ) }
L:1/8
Q:1/4=106
M:4/4
K:Ab
V:1 treble nm="Grand Piano"
V:3 treble 
V:2 bass 
V:4 bass 
V:1
 [CE]3 [CE] [DF]2 [DG]2 | [CA]2 [Ec]6 | [Fd]2 [Fd]2 [FA]3 [=EB] | [Ec]6 z2 | %4
w: C.~Austin~Miles * * *||||
 [=Ec]3 [Ec] [EG]2 [EB]2 | B2 A2 G2 A2 | [=DB]2 [DF]2 [Ac]3 [B,AB] | [GB]6 z2 | %8
w: ||||
 [CE]3 [CE] [DF]2 [DG]2 | [CA]2 [Ec]6 | [Fd]2 [Fd]2 [FA]3 [FB] | [=Ec]6 z2 | %12
w: ||||
 [Ec]3 [Ed] [Ee]2 [Ec]2 | [FB] [FA]3 [EG]2 F2 | E4 B4 |[M:3/4] [A,CA]6 |[M:1/4] E2 | %17
w: |||||
[M:4/4] [CA] [CA]3 [Ec] [Ec]2 [CA] | B2 A2 F2 A2 | [CE]2 [CA]2 [Ec]3 [CA] | c2 B4 c2 | %21
w: ||||
 d d3 c B2 [EB] | [Ec]2 [Ed]2 [Ee]3 [Ec] | [=DB]2 [DB]2 [Ac]3 [AB] | [GB]6 z2 | %25
w: ||||
 [CA]2 [CA]2 [Ec]2 [Ec]>[Ec] | [DB]2 [DA]2 [CA]3 [CG] | F2 F2 A3 F | [DF]2 [CE]4 [CE]2 | %29
w: ||||
 [CA]4 [Ec]3 [_Ge] | [Fd]4 [FA]3 [=EB] | c6 z2 | [A,A]2- [A,-FA-]2 [A,EA]2 z2 |] %33
w: ||||
V:2
 [A,,A,]3 [A,,A,] [A,,F,]2 [A,,F,]2 | [A,,E,]2 [A,,A,]6 | [D,A,]2 [D,A,]2 [D,A,]3 [D,A,] | %3
 [A,,A,]6 z2 | [C,G,]3 [C,G,] [C,C]2 [C,C]2 | [F,DF]2 [F,CF]2 [F,B,F]2 [F,CF]2 | %6
 [B,,B,]2 [B,,B,]2 [=D,B,]3 D, | z2 C2 D4 | [A,,A,]3 [A,,A,] [A,,F,]2 [A,,F,]2 | %9
 [A,,E,]2 [A,,A,]6 | [D,A,]2 [D,A,]2 [D,A,]3 [D,F,] | [C,G,]6 z2 | %12
 [A,,A,]3 [B,,G,] [C,A,]2 [A,,A,]2 | [D,A,] [D,A,]3 [D,A,]2 [D,A,D]2 | [E,A,C]4 [E,G,D]4 | %15
[M:3/4] A,,6 |[M:1/4] C2 |[M:4/4] [A,,E,] [A,,E,]3 [A,,A,] [A,,A,]2 [A,,A,] | %18
 [D,F,D]2 [D,F,D]2 [D,A,D]2 [D,F,D]2 | [A,,A,]2 [A,,A,]2 [A,,A,]3 [A,,A,] | %20
 [E,A,E]2 [E,G,D]4 [E,A,E]2 | [E,G,E] [E,G,E]3 [E,A,E] [E,G,E]2 [D,G,] | %22
 [C,A,]2 [B,,G,]2 [C,A,]3 [A,,A,] | [B,,F,]2 [B,,F,]2 [B,,B,]3 [=D,B,] | B,2 z2 z2 [E,G,D]2 | %25
 [A,,E,]2 [A,,E,]2 [A,,A,]2 [A,,A,]>[A,,A,] | [A,,F,]2 [A,,F,]2 [A,,E,]3 [A,,A,] | %27
 [D,A,D]2 [D,A,D]2 [D,F,D]3 [D,A,D] | [A,,A,]2 [A,,A,]4 [A,,A,]2 | [A,,A,]4 [A,,A,]3 [C,A,] | %30
 [D,A,]4 [D,A,]3 [D,A,] | [A,E]2 C2 z2[K:treble] B2 | z2 D2 C2 z2 |] %33
V:3
 x8 | x8 | x8 | x8 | x8 | x8 | x8 | B,2 z2 z4 | x8 | x8 | x8 | x8 | x8 | x8 | x8 |[M:3/4] x6 | %16
[M:1/4] x2 |[M:4/4] x8 | x8 | x8 | x8 | x8 | x8 | x8 | z2 C2 D2 E2 | x8 | x8 | x8 | x8 | x8 | x8 | %31
 z2 A2 [DG]4 | C2 z2 z4 |] %33
V:4
 x8 | x8 | x8 | x8 | x8 | x8 | x8 | E,6 z2 | x8 | x8 | x8 | x8 | x8 | x8 | x8 |[M:3/4] x6 | %16
[M:1/4] x2 |[M:4/4] x8 | x8 | x8 | x8 | x8 | x8 | x8 | E,6 z2 | x8 | x8 | x8 | x8 | x8 | x8 | %31
 E,4 E,4[K:treble] | A,,6 z2 |] %33

